tipitek/img/coinlist_icon-1.svg

<svg width="15" height="20" viewBox="0 0 15 20" fill="none" xmlns="http://www.w3.org/2000/svg">
<path d="M13.3531 6.15449C13.4691 6.76962 13.3794 7.40585 13.0977 7.96489C12.8161 8.52394 12.3582 8.97471 11.7949 9.24756L11.7782 9.25506C12.599 9.41104 13.3404 9.84653 13.8763 10.4875L13.8813 10.4933C14.2521 11.0466 14.4738 11.7274 14.4738 12.4598C14.4738 12.6731 14.4546 12.8831 14.4188 13.0864L14.4221 13.0647C14.3791 13.5947 14.2429 14.1129 14.0197 14.5955L14.0313 14.5671C13.8471 14.9698 13.5841 15.3316 13.2581 15.6312L13.2556 15.6337C12.9182 15.9283 12.533 16.1631 12.1165 16.3278L12.0898 16.337C11.6333 16.524 11.1577 16.6609 10.6716 16.7453L10.6291 16.7519C10.1242 16.8403 9.52254 16.9044 8.91093 16.9311L8.88093 16.9319V20H7.03025V16.9836C6.38919 16.9836 5.90034 16.9797 5.5637 16.9719V20H3.71302V16.9336C3.56859 16.9336 3.35222 16.9316 3.06391 16.9278C2.7756 16.9239 2.55507 16.9219 2.4023 16.9219H0L0.372469 14.7221H1.70569C1.79203 14.7296 1.87899 14.7196 1.96134 14.6926C2.0437 14.6656 2.11974 14.6222 2.1849 14.5651C2.25006 14.508 2.30298 14.4382 2.34049 14.3601C2.37799 14.282 2.3993 14.1971 2.40313 14.1105V9.27756H2.59478C2.53793 9.26936 2.48057 9.26519 2.42313 9.26506H2.4023H2.40313V5.81618C2.36797 5.5659 2.23517 5.3397 2.03377 5.187C1.83236 5.03431 1.57871 4.96753 1.32822 5.00125L1.33322 5.00042H0V3.02891L2.54812 3.04058C3.06086 3.04058 3.44943 3.03669 3.71386 3.02891V0.000833264H5.56454V2.96892C6.22115 2.95281 6.71 2.94475 7.03108 2.94475V0H8.88176V3.02808C9.50754 3.07891 10.0817 3.17474 10.6383 3.31472L10.5641 3.29889C11.049 3.41946 11.515 3.6062 11.949 3.85385L11.9223 3.83968C12.3298 4.06883 12.6639 4.38547 12.9073 4.76627L12.9139 4.7771C13.1675 5.19092 13.3181 5.65956 13.3531 6.14366L13.3539 6.15365L13.3531 6.15449ZM10.7691 12.7048V12.6731C10.7691 12.4031 10.7024 12.1498 10.585 11.9265L10.5891 11.9348C10.4795 11.7242 10.3295 11.5374 10.1475 11.3849L10.145 11.3824C9.94224 11.2243 9.71397 11.102 9.47005 11.0207L9.45421 11.0157C9.21026 10.926 8.9602 10.8539 8.70594 10.7999L8.66761 10.7933C8.38029 10.7387 8.08968 10.7031 7.79769 10.6866L7.77852 10.6858C7.42633 10.6619 7.14996 10.6499 6.94942 10.6499C6.74888 10.6499 6.49057 10.6538 6.17449 10.6616C5.8584 10.6694 5.66814 10.6733 5.6037 10.6733V14.7329C5.66758 14.7329 5.8159 14.7349 6.04866 14.7388C6.28142 14.7427 6.47363 14.7446 6.62528 14.7446C6.77694 14.7446 6.98942 14.7385 7.26273 14.7263C7.53604 14.7141 7.77046 14.6979 7.966 14.6779C8.16154 14.6579 8.38986 14.6241 8.65095 14.5763C8.90926 14.5313 9.13341 14.473 9.35006 14.3988L9.31756 14.4088C9.54087 14.3288 9.72919 14.2438 9.90918 14.1455L9.88751 14.1563C10.0717 14.0613 10.2291 13.9405 10.3608 13.7972L10.3616 13.7964C10.4816 13.6597 10.5808 13.5005 10.6524 13.3272L10.6566 13.3156C10.7321 13.1281 10.7706 12.9277 10.7699 12.7256V12.7031V12.7039L10.7691 12.7048ZM9.91584 6.98359V6.95275C9.91584 6.70861 9.86001 6.47779 9.76169 6.27114L9.76585 6.28031C9.67626 6.09102 9.55221 5.92007 9.40005 5.77619L9.39922 5.77535C9.23303 5.63186 9.04179 5.52028 8.8351 5.44621L8.8226 5.44205C8.61712 5.35926 8.40499 5.29403 8.18849 5.24706L8.16099 5.24206C7.9239 5.19644 7.68434 5.16472 7.44355 5.14707L7.42105 5.1454C7.12885 5.12152 6.89637 5.11152 6.72361 5.11541C6.55084 5.1193 6.33447 5.12318 6.07449 5.12707C5.81452 5.13096 5.6562 5.13291 5.59953 5.13291V8.8226L6.0145 8.82843C6.25115 8.83232 6.43724 8.83232 6.57279 8.82843C6.70833 8.82454 6.90831 8.81649 7.17274 8.80427C7.40462 8.79642 7.63569 8.77275 7.86435 8.73344L7.83435 8.73761C8.01211 8.70539 8.21821 8.66095 8.45263 8.60428C8.67261 8.55595 8.8676 8.47929 9.04508 8.3768L9.03508 8.3818C9.1935 8.2852 9.34347 8.17537 9.48338 8.0535L9.47921 8.05683C9.6221 7.93384 9.73256 7.7776 9.80085 7.60187L9.80335 7.59437C9.87335 7.41772 9.91334 7.21273 9.91334 6.99858V6.98109V6.98192L9.91584 6.98359Z" fill="#E9983D"/>
</svg>

<svg width="15" height="20" fill="none" xmlns="http://www.w3.org/2000/svg"><path d="M13.353 6.154a2.85 2.85 0 0 1-1.558 3.094l-.017.007c.821.156 1.562.592 2.098 1.232l.005.006c.371.554.593 1.234.593 1.967 0 .213-.02.423-.055.626l.003-.021a4.517 4.517 0 0 1-.402 1.53l.011-.028a3.322 3.322 0 0 1-.773 1.064l-.002.003c-.338.294-.723.53-1.14.694l-.026.009a6.819 6.819 0 0 1-1.418.408l-.043.007a13.72 13.72 0 0 1-1.718.18h-.03V20H7.03v-3.016a68.4 68.4 0 0 1-1.467-.012V20H3.713v-3.066c-.144 0-.36-.002-.65-.006a52.942 52.942 0 0 0-.66-.006H0l.372-2.2h1.334a.642.642 0 0 0 .697-.611V9.277h.192a1.222 1.222 0 0 0-.172-.013h-.02V5.816a.957.957 0 0 0-1.075-.815h.005H0V3.028l2.548.012c.513 0 .901-.004 1.166-.012V0h1.85v2.968a65.792 65.792 0 0 1 1.467-.024V0h1.85v3.028c.627.05 1.2.147 1.757.287l-.074-.016c.485.12.951.307 1.385.555l-.027-.014c.408.229.742.545.985.926l.007.011c.254.414.404.883.44 1.367v.01zm-2.584 6.55v-.03c0-.27-.067-.524-.184-.747l.004.008c-.11-.21-.26-.398-.441-.55l-.003-.003a2.26 2.26 0 0 0-.675-.361l-.016-.005a5.447 5.447 0 0 0-.748-.216l-.038-.007a6.678 6.678 0 0 0-.87-.106l-.02-.001a13.008 13.008 0 0 0-.829-.036c-.2 0-.458.004-.775.012-.316.007-.506.011-.57.011v4.06l.445.006a15.256 15.256 0 0 0 1.214-.012 8.892 8.892 0 0 0 1.388-.15 4.5 4.5 0 0 0 .7-.178l-.033.01c.223-.08.411-.165.591-.264l-.021.011c.184-.095.341-.216.473-.359.12-.137.22-.296.291-.47l.005-.011c.075-.188.114-.388.113-.59v-.023.002zm-.853-5.72v-.031c0-.244-.056-.475-.154-.682l.004.01c-.09-.19-.214-.36-.366-.505a1.784 1.784 0 0 0-.565-.33l-.012-.004a3.922 3.922 0 0 0-.635-.195l-.027-.005a6.193 6.193 0 0 0-.717-.095l-.023-.002a7.067 7.067 0 0 0-.697-.03 88.791 88.791 0 0 1-1.124.018v3.69l.415.005a13.11 13.11 0 0 0 1.158-.024 5.1 5.1 0 0 0 .691-.07l-.03.004c.178-.033.384-.077.619-.134.22-.048.415-.125.592-.227l-.01.005c.159-.097.308-.207.448-.329l-.004.004a1.15 1.15 0 0 0 .322-.455l.002-.008c.07-.176.11-.381.11-.595V6.98l.003.003z" fill="#E9983D"/></svg>
